Obsidian-SemiLight/actions/24s/download-later.svg

<svg viewBox="0 0 24 24" xmlns="http://www.w3.org/2000/svg"><path d="m12 4c-4.4319982 0-8 3.568-8 8 0 4.092537 3.0443284 7.441581 7 7.931641v-1.009766c-3.3993571-.483816-6-3.384659-6-6.921875 0-.242375.0113434-.480906.0351562-.716797.357195-3.5383663 3.32922-6.283203 6.9648438-6.283203 3.877999 0 7 3.122 7 7 0 .340784-.031505.672498-.078125 1h1.009766c.040654-.32811.068359-.660537.068359-1 0-4.432-3.568002-8-8-8zm-1 2v7h6v-1h-5v-6zm6 8v4.292969l-2.292969-2.292969-.707031.707031 3.292969 3.292969.207031.207031.207031-.207031 3.292969-3.292969-.707031-.707031-2.292969 2.292969v-4.292969z" fill="#4d4d4d"/></svg>

<svg xmlns="http://www.w3.org/2000/svg" viewBox="0 0 24 24">
  <defs id="defs3051">
    <style type="text/css" id="current-color-scheme">
      .ColorScheme-Text {
        color:#4d4d4d;
      }
      </style>
  </defs>
 <path style="fill:currentColor;fill-opacity:1;stroke:none" 
     d="M 12 4 C 7.5680018 4 4 7.568 4 12 C 4 16.092537 7.0443284 19.441581 11 19.931641 L 11 18.921875 C 7.6006429 18.438059 5 15.537216 5 12 C 5 11.757625 5.0113434 11.519094 5.0351562 11.283203 C 5.3923512 7.7448367 8.3643762 5 12 5 C 15.877999 5 19 8.122 19 12 C 19 12.340784 18.968495 12.672498 18.921875 13 L 19.931641 13 C 19.972295 12.67189 20 12.339463 20 12 C 20 7.568 16.431998 4 12 4 z M 11 6 L 11 13 L 17 13 L 17 12 L 12 12 L 12 6 L 11 6 z M 17 14 L 17 18.292969 L 14.707031 16 L 14 16.707031 L 17.292969 20 L 17.5 20.207031 L 17.707031 20 L 21 16.707031 L 20.292969 16 L 18 18.292969 L 18 14 L 17 14 z "
     class="ColorScheme-Text"
     />
</svg>
